app/assets/icons/check.svg

<svg width="109" height="109" viewBox="0 0 109 109" fill="none" xmlns="http://www.w3.org/2000/svg">
<circle cx="54.5" cy="54.5" r="54.5" fill="#FF9446"/>
<path fill-rule="evenodd" clip-rule="evenodd" d="M75.4456 36.991C76.5922 37.8215 76.8425 39.416 76.0045 40.5524L52.4985 69.9326C51.0653 71.8765 48.1977 72.0391 46.5501 70.2701L32.1819 54.843C31.2187 53.8087 31.2838 52.1964 32.3273 51.2417C33.3708 50.287 34.9977 50.3515 35.9609 51.3857L49.2686 65.6742L71.8523 37.545C72.6902 36.4086 74.299 36.1606 75.4456 36.991Z" fill="white"/>
</svg>

<svg width="109" height="109" fill="none" xmlns="http://www.w3.org/2000/svg"><circle cx="54.5" cy="54.5" r="54.5" fill="#FF9446"/><path fill-rule="evenodd" clip-rule="evenodd" d="M75.446 36.991a2.534 2.534 0 0 1 .558 3.561l-23.506 29.38c-1.433 1.944-4.3 2.107-5.948.338L32.182 54.843a2.533 2.533 0 0 1 .145-3.601 2.588 2.588 0 0 1 3.634.144l13.308 14.288 22.583-28.129a2.587 2.587 0 0 1 3.594-.554Z" fill="#fff"/></svg>
